!!!!SEGMENT: pl-gd--ee-1638--006-022_marenzio-luca--il-quinto-libro-de-madrigalia-a-cinque-voci-se-voi-sete-cor-mio.krn
!!!cenid: 15xx:904
!!!COM: Marenzio, Luca
!!!COM-rismid: pe30003955
!!!CDT: ~1553-1599/08/22
!!!CNT: Italian
!!!GTL: Il Quinto libro de madrigalia a cinque voci
!!!OTL: Se voi sete cor mio
!!!OMV: 022
!!!PDT: 1585
!!!AGN:
!!!SMS-siglum: PL-GD
!!!SMS-shelfmark: Ee 1638
!!!SMS-variant:
!!!SMS-altvar:
!!!SMS-shelfwork: 006-022 G
!!!NIFC-rismid: 990039296
!!!URL-scan: https://repozytorium.nifc.pl/islandora/object/pl-gd%3A57883/datastream/PDF/view
!!!ONB-nifc:
!!!AIN: 1 alto 1 bass 1 soprn 1 tenor 1 vox
!!!key: g
**kern	**text	**kern	**text	**kern	**text	**kern	**text	**kern	**text
*part5	*part5	*part4	*part4	*part3	*part3	*part2	*part2	*part1	*part1
*staff5	*staff5	*staff4	*staff4	*staff3	*staff3	*staff2	*staff2	*staff1	*staff1
*I"QVINTO	*	*I"BASSO	*	*I"TENORE 	*	*I"ALTO	*	*I"CANTO	*
*I'V	*	*I'B	*	*I'T	*	*I'A	*	*I'S	*
*ICvox	*	*ICvox	*	*ICvox	*	*ICvox	*	*ICvox	*
*Ivox	*	*Ibass	*	*Itenor	*	*Ialto	*	*Isoprn	*
*clefG2	*	*clefF3	*	*clefC3	*	*clefC2	*	*clefG2	*
*k[b-]	*	*k[b-]	*	*k[b-]	*	*k[b-]	*	*k[b-]	*
*g:	*	*g:	*	*g:	*	*g:	*	*g:	*
*M2/1	*	*M2/1	*	*M2/1	*	*M2/1	*	*M2/1	*
*met(C)	*	*met(C)	*	*met(C)	*	*met(C)	*	*met(C)	*
=1-	=1-	=1-	=1-	=1-	=1-	=1-	=1-	=1-	=1-
!	!	!LO:TX:t=P:problem:podwójnie zapisany znak przykluczowy: BB- B-	!	!	!	!	!	!	!
!	!	!	!	!	!	!LO:TX:t=P:problem:podwójnie zapisany znak przykluczowy: B- b-	!	!	!
1b-	SE	1G	SE	1d	SE	1g	SE	1r	.
2a/	voi	2D/	voi	2d\	voi	2f#X\	voi	1dd	SE
4r	.	4r	.	4r	.	4r	.	.	.
!LO:N:acc=#	!	!	!	!	!	!	!	!	!
4.bn/	ſe-	4.G\	ſe-	4.d\	ſe-	4.g\	ſe-	.	.
=2-	=2-	=2-	=2-	=2-	=2-	=2-	=2-	=2-	=2-
.	.	.	.	.	.	.	.	2dd\	voi
!LO:N:acc=#y	!	!	!	!	!	!	!	!	!
8bny/	-te	8G\	-te	8d\	-te	8g\	-te	.	.
4b/	cor	4G\	cor	4d\	cor	4g\	cor	.	.
2cc\	mi-	2C/	mi-	2e-X\	mi-	2g\	mi-	2r	.
!LO:N:acc=#	!	!	!	!	!	!	!	!	!
2bn/	-o	1G	-o	1d	-o	1g	-o	4r	.
.	.	.	.	.	.	.	.	4.dd\	ſe-
2b/	Se	.	.	.	.	.	.	.	.
.	.	.	.	.	.	.	.	8dd\	-te
.	.	.	.	.	.	.	.	4dd\	cor
=3-	=3-	=3-	=3-	=3-	=3-	=3-	=3-	=3-	=3-
2cc\	voi	2r	.	2c/	Se	2g\	Se	2ee-X\	mi-
4r	.	4r	.	4G/	voi	4g\	voi	2dd\	-o
!	!	!	!	!	!	!LO:N:acc=#	!	!	!
4.dd\	Se-	4.G\	ſe-	4.g\	ſe-	4.bn\	ſe-	.	.
.	.	.	.	.	.	.	.	1r	.
8dd\	-te	8G\	-te	8g\	-te	8b\	-te	.	.
!LO:SIC:v:t=custos ee	!	!	!	!	!	!	!	!	!
4dd\	cor	4G\	cor	4g\	cor	4b\	cor	.	.
!LO:LB:g=original	!	!	!	!	!	!	!	!	!
2ee-X\	mi-	2C/	mi-	2g\	mi-	2cc\	mi-	.	.
=4-	=4-	=4-	=4-	=4-	=4-	=4-	=4-	=4-	=4-
!	!	!LO:SIC:v:t=custos G	!	!LO:SIC:v:t=custos g	!	!LO:SIC:v:t=custos d	!	!	!
1dd	-o	1D	-o	1f#X	-o	1a	-o	2r	.
.	.	.	.	.	.	.	.	4dd\	Quan-
.	.	.	.	.	.	.	.	4dd\	-to
!	!	!LO:LB:g=original	!	!LO:LB:g=original	!	!LO:LB:g=original	!	!	!
4b-y/	Quã(n)-	4G\	Quan-	4g\	Quan-	4d/	Quan-	1dd	ben
4b-/	-to	4G\	-to	4g\	-to	4d/	-to	.	.
2b-/	ben	2G\	ben	2d\	ben	2g\	ben	.	.
=5-	=5-	=5-	=5-	=5-	=5-	=5-	=5-	=5-	=5-
4cc\	quã(n)-	4F/	quan-	4A/	quã(n)-	4a\	quã(n)-	4ff\	quã(n)-
!	!	!	!	!	!	!	!	!LO:SIC:v:t=custos ff	!
4cc\	-ta	4F/	-ta	4A/	-ta	4a\	-ta	4ff\	-ta
!	!	!	!	!	!	!	!	!LO:LB:g=original	!
4dd\	gio-	2.B-\	gio-	2d\	gio-	4.b-y\	gio-	8ff\	gio-
.	.	.	.	.	.	.	.	8eeny\	.
4b-\	-ia	.	.	.	.	.	.	8dd\	.
.	.	.	.	.	.	16a\	.	8cc\	.
.	.	.	.	.	.	16g\	.	.	.
8b-\	ha-	.	.	2d\	-ia	4fny\	-ia	4.dd\	.
8cc\	-uer	.	.	.	.	.	.	.	.
8dd\	.	4G\	-ia	.	.	4b-\	ha-	.	.
8eeny\	.	.	.	.	.	.	.	16cc\	.
.	.	.	.	.	.	.	.	16b-\	.
2.ff\	.	4F/	ha-	4r	.	4cc\	-uer	4a/	.
.	.	4BB-/	-uer	4F/	ha-	4b-\	poſ-	4dd\	-ia
=6-	=6-	=6-	=6-	=6-	=6-	=6-	=6-	=6-	=6-
.	.	1F	poſ-	4A/	-uer	8a\	-s`i-	4cc\	ha-
.	.	.	.	.	.	8g\	.	.	.
4dd\	poſ-	.	.	4B-/	poſ-	8f\	.	2b-/	-uer
.	.	.	.	.	.	8e\	.	.	.
2cc\	-s`i-	.	.	2c/	-s`i-	2f\	.	.	.
.	.	.	.	.	.	.	.	4a/	poſ-
1dd	-o	1BB-	-s`io	1B-	-o	1f	-o	1b-	-s`io
=7-	=7-	=7-	=7-	=7-	=7-	=7-	=7-	=7-	=7-
0r	.	4B-\	E	4fny\	E	4b-\	E	4dd\	E
.	.	2F/	da	2f\	da	2a\	da	2cc\	da
!	!	!	!	!	!	!LO:SIC:v:t=custos f	!	!	!
.	.	4G\	vo-	4d\	vo-	4g\	vo-	4b-/	voſ-
!	!	!	!	!	!	!LO:LB:g=original	!	!	!
.	.	4.D/	-ſtr`oc-	4.d\	-ſtr`oc-	4.f#X\	-ſtr`oc-	4.a/	-tr`oc-
!	!	!LO:SIC:v:t=custos F	!	!	!	!	!	!	!
.	.	8G\	-chi	8d\	-chi	8g\	-chi	8b-/	-chi
!	!	!LO:LB:g=original	!	!LO:SIC:v:t=custos f	!	!	!	!	!
.	.	2F/	vie-	2f\	vie-	2a\	vie-	2cc\	vie-
!	!	!	!	!LO:LB:g=original	!	!	!	!	!
=8-	=8-	=8-	=8-	=8-	=8-	=8-	=8-	=8-	=8-
4r	.	4F/	-ne	4f\	-ne	4a-yX\	-ne	2cc\	-ne
4.cc\	Quel-	4.c\	Quel-	4.eny\	Quel-	4.g\	Quel-	.	.
!	!	!	!	!	!	!	!	!LO:SIC:v:t=custos cc	!
.	.	.	.	.	.	.	.	2r	.
!LO:SIC:v:t=custos cc	!	!	!	!	!	!	!	!	!
8cc\	-la	8c\	-la	8e\	-la	8g\	-la	.	.
!LO:LB:g=original	!	!	!	!	!	!	!	!	!
4cc\	vir-	4c\	vir-	4e\	vir-	4g\	vir-	.	.
!	!	!	!	!	!	!	!	!LO:LB:g=original	!
2cc\	-tù	1c	-tù	1e	-tù	1g	-tù	4r	.
.	.	.	.	.	.	.	.	4.cc\	Quel-
2r	.	.	.	.	.	.	.	.	.
.	.	.	.	.	.	.	.	8cc\	-la
.	.	.	.	.	.	.	.	4cc\	vir-
=9-	=9-	=9-	=9-	=9-	=9-	=9-	=9-	=9-	=9-
4r	.	4r	.	4r	.	4r	.	2cc\	-tù
4ee\	che	4A\	che	4e\	che	4any\	che	.	.
4.ff\	vi-	4.d\	vi-	4d\	vi-	4.a\	vi-	2r	.
.	.	.	.	4f\	-uo	.	.	.	.
8ee\	-uo	8c\	-uo	.	.	8a\	-uo	.	.
4dd\	mi	4B-\	mi	4f\	mi	4b-\	mi	2r	.
4dd\	man-	4G\	man-	4g\	mã(n)-	4b-\	man-	.	.
2cc#X\	-tie-	2A\	-tie-	2e\	-tie-	2a\	-tie-	4r	.
.	.	.	.	.	.	.	.	4ee\	che
=10-	=10-	=10-	=10-	=10-	=10-	=10-	=10-	=10-	=10-
2dd\	-ne	1D	-ne	1d	-ne	1a	-ne	4.ff\	vi-
.	.	.	.	.	.	.	.	8ee\	-uo
2r	.	.	.	.	.	.	.	4dd\	mi
.	.	.	.	.	.	.	.	4dd\	man-
*	*	*	*	*	*	*	*ij	*	*
4r	.	4r	.	2A/	che	2a\	che	2cc#X\	-tie-
*	*ij	*	*ij	*	*	*	*	*	*
4ee\	che	4A\	che	.	.	.	.	.	.
4.ff\	vi-	4.d\	vi-	4f\	vi-	4.a\	vi-	2dd\	-ne
.	.	.	.	4f\	-uo	.	.	.	.
!	!	!	!	!	!	!LO:SIC:v:t=custos b	!	!	!
8ee\	-uo	8c\	-uo	.	.	8a\	-uo	.	.
!	!	!	!	!	!	!LO:LB:g=original	!	!	!
=11-	=11-	=11-	=11-	=11-	=11-	=11-	=11-	=11-	=11-
4dd\	mi	4B-\	mi	4f\	mi	4b-\	mi	0r	.
!	!	!LO:SIC:v:t=custos A	!	!	!	!	!	!	!
4dd\	man-	4G\	man-	4g\	man-	4b-\	man-	.	.
!	!	!LO:LB:g=original	!	!	!	!	!	!	!
2cc#X\	-tie-	2A\	-tie-	2e\	-tie-	2a\	-tie-	.	.
1dd	-ne	0D	-ne	1d	-ne	1a	-ne	.	.
*	*Xij	*	*Xij	*	*	*	*Xij	*	*
=12-	=12-	=12-	=12-	=12-	=12-	=12-	=12-	=12-	=12-
2r	.	.	.	2r	.	2r	.	1a	Co-
!	!	!	!	!LO:SIC:v:t=custos c	!	!	!	!	!
2dd\	Co-	.	.	2d\	Co-	2fny\	Co-	.	.
!	!	!	!	!LO:LB:g=original	!	!	!	!	!
2.ee\	-me	1r	.	2.c/	-me	2.g\	-me	2.ccny\	-me
!LO:SIC:v:t=custos ee	!	!	!	!	!	!	!	!	!
4ee\	pot-	.	.	4c/	pot-	4g\	pot-	4cc\	pot-
!LO:LB:g=original	!	!	!	!	!	!	!	!	!
=13-	=13-	=13-	=13-	=13-	=13-	=13-	=13-	=13-	=13-
2ee\	-rò	00r	.	2c/	-rò	2g\	-rò	2cc\	-rò
!	!	!	!	!	!	!	!	!LO:SIC:v:t=custos ee	!
2ff\	da	.	.	2B-/	da	2b-\	da	2dd\	gia-
!	!	!	!	!	!	!	!	!LO:LB:g=original	!
1gg	voi	.	.	1e-X	voi	1b-	voi	1ee-X	-mai
=14-	=14-	=14-	=14-	=14-	=14-	=14-	=14-	=14-	=14-
4ff\	a-	.	.	4B-/	a-	4b-\	a-	4dd\	a-
2ff\	-lon-	.	.	2B-/	-lon-	2b-\	-lon-	2dd\	-lon-
4ee\	-ta-	.	.	4c/	-ta-	4g\	-ta-	4cc\	-ta-
!	!	!	!	!	!	!	!	!LO:N:acc=#	!
2dd\	-nar-	.	.	2G/	-nar-	2g\	-nar-	2bn/	-nar-
4dd\	-mi	.	.	4G/	-mi	4g\	-mi	4b/	-mi
4ee\	E`n	.	.	4c/	E`n	4g\	E`n	4cc\	E`n
=15-	=15-	=15-	=15-	=15-	=15-	=15-	=15-	=15-	=15-
4.ee\	vi-	0r	.	4.A/	vi-	4.a\	vi-	4.cc\	vi-
8ee\	-ta	.	.	8A/	-ta	8e/	-ta	8cc\	-ta
4dd\	reſ-	.	.	4B-/	reſ-	4g\	reſ-	4dd\	reſ-
!	!	!	!	!	!	!LO:SIC:v:t=custos f	!	!	!
2ccny\	-tar	.	.	4c/	-tar	4g\	-tar	4eeny\	-tar
!	!	!	!	!	!	!LO:LB:g=original	!	!	!
.	.	.	.	1d	po-	1f	po-	1ff	po-
!LO:N:acc=#	!	!	!	!	!	!	!	!	!
8bn/	po-	.	.	.	.	.	.	.	.
8a/	.	.	.	.	.	.	.	.	.
!LO:N:acc=#	!	!	!	!	!	!	!	!	!
2bn/	.	.	.	.	.	.	.	.	.
=16-	=16-	=16-	=16-	=16-	=16-	=16-	=16-	=16-	=16-
1cc	-i	1r	.	1c	-i	1g	-i	1ee	-i
4r	.	4C/	ve-	4c/	ve-	4g\	ve-	4r	.
!	!	!	!	!LO:SIC:v:t=custos c	!	!	!	!	!
8cc\	ve-	4C/	-ra-	4c/	-ra-	4g\	-ra-	8ee\	ve-
8dd\	-ra-	.	.	.	.	.	.	8ff\	-ra-
!LO:SIC:v:t=custos dd	!	!	!	!LO:LB:g=original	!	!	!	!	!
2ee\	-men-	2C/	-men-	2c/	-men-	2g\	-men-	2gg\	-men-
!LO:LB:g=original	!	!	!	!	!	!	!	!	!
=17-	=17-	=17-	=17-	=17-	=17-	=17-	=17-	=17-	=17-
!	!	!	!	!LO:N:acc=#	!	!	!	!	!
4dd\	-te	4G\	-te	4Bn/	-te	4g\	-te	4gg\	-te
!	!	!	!	!	!	!	!	!LO:SIC:v:t=custos cc	!
4ee\	non	4C/	non	4c/	non	4g\	non	4gg\	non
!	!	!	!	!	!	!	!	!LO:LB:g=original	!
2.ff\	sò	2F/	sò	2c/	sò	2a\	sò	2cc\	sò
.	.	2A\	co-	1r	.	2a\	co-	2cc\	co-
4ee\	co-	.	.	.	.	.	.	.	.
4.dd\	-me	4.B-\	-me	.	.	4.f\	-me	4.b-y/	-me
8dd\	fug-	8G\	fug-	.	.	8g\	fug-	8b-/	fug-
=18-	=18-	=18-	=18-	=18-	=18-	=18-	=18-	=18-	=18-
2cc#X\	-gi-	2A\	-gi-	4r	.	2e/	-gi-	2a/	-gi-
.	.	.	.	4A/	non	.	.	.	.
4dd\	-re	2D/	-re	2d\	sò	2f\	-re	4a/	-re
4a/	non	.	.	.	.	.	.	4dd\	non
4.dd\	sò	1r	.	2B-ny/	co-	4r	.	4.ff\	sò
.	.	.	.	.	.	4d/	non	.	.
8dd\	co-	.	.	.	.	.	.	8ff\	co-
4.b-y/	-me	.	.	4.e-X\	-me	4.g\	sò	4.ee-X\	-me
8cc#\	fug-	.	.	8c/	fug-	8a\	co-	8ee-\	fug-
=19-	=19-	=19-	=19-	=19-	=19-	=19-	=19-	=19-	=19-
1a	-gi-	0r	.	1d	-gi-	4f#X\	-me	1dd	-gi-
.	.	.	.	.	.	2g\	fug-	.	.
!	!	!	!	!	!	!LO:SIC:v:t=custos g	!	!	!
.	.	.	.	.	.	4f#X\	-gi-	.	.
!	!	!	!	!	!	!LO:LB:g=original	!	!	!
2.b-/	-re	.	.	1G	-re	1g	-re	1dd	-re
4ccny\	.	.	.	.	.	.	.	.	.
=20-	=20-	=20-	=20-	=20-	=20-	=20-	=20-	=20-	=20-
1dd	.	1G	Di	2d\	Di	1b-	Di	1r	.
.	.	.	.	1d	non	.	.	.	.
1r	.	1.G	non	.	.	1.b-	non	1dd	Di
.	.	.	.	2c/	mo-	.	.	.	.
=21-	=21-	=21-	=21-	=21-	=21-	=21-	=21-	=21-	=21-
!LO:SIC:v:t=custos gg	!	!	!	!	!	!	!	!	!
1dd	Di	.	.	1B-	-rir	.	.	1.gg	non
.	.	2F/	mo-	.	.	2a\	mo-	.	.
!LO:LB:g=original	!	!	!	!	!	!	!	!	!
1.gg	non	1.E-X	-rir	0B-	in	1g	-rir	.	.
.	.	.	.	.	.	.	.	2ff\	mo-
=22-	=22-	=22-	=22-	=22-	=22-	=22-	=22-	=22-	=22-
.	.	.	.	.	.	1g	in	1.ee-X	-rir
!	!	!LO:SIC:v:t=custos C	!	!	!	!	!	!	!
2ff\	mo-	2D/	in	.	.	.	.	.	.
!	!	!LO:LB:g=original	!	!	!	!	!	!	!
1.ee-X	-rir	1C	queſ-	0c	queſ-	1g	queſ-	.	.
!	!	!	!	!	!	!	!	!LO:SIC:v:t=custos cc	!
.	.	.	.	.	.	.	.	2dd\	in
!	!	!	!	!	!	!	!	!LO:LB:g=original	!
=23-	=23-	=23-	=23-	=23-	=23-	=23-	=23-	=23-	=23-
.	.	1C	-to	.	.	1g	-to	1.cc	queſ-
2dd\	in	.	.	.	.	.	.	.	.
!	!	!	!	!LO:SIC:v:t=custos c	!	!	!	!	!
1cc	queſ-	1.F	di	1A	-to	1.a	di	.	.
.	.	.	.	.	.	.	.	2b-/	-to
!	!	!	!	!LO:LB:g=original	!	!	!	!	!
=24-	=24-	=24-	=24-	=24-	=24-	=24-	=24-	=24-	=24-
1cc	-to	.	.	1.c	di	.	.	1.a	di
.	.	2Eny/	par-	.	.	2g\	-par-	.	.
2.dd\	di	0E	-ti-	.	.	2f#X\	-ti-	.	.
.	.	.	.	2B-/	par-	2.g\	.	2g/	-par-
4dd\	par-	.	.	.	.	.	.	.	.
=25-	=25-	=25-	=25-	=25-	=25-	=25-	=25-	=25-	=25-
1dd	-ti-	.	.	1A	-ti-	.	.	1a	-ti-
.	.	.	.	.	.	8f#X\	.	.	.
.	.	.	.	.	.	8e\	.	.	.
.	.	.	.	.	.	2f#X\	.	.	.
!	!	!	!	!	!	!	!	!LO:N:acc=#	!
1dd	-re	1G	-re	1G	-re	1g	-re	1bn	-re
=26-	=26-	=26-	=26-	=26-	=26-	=26-	=26-	=26-	=26-
4r	.	4C/	ve-	4c/	ve-	4g\	ve-	4r	.
8eeny\	ve-	4C/	-ra-	4c/	-ra-	4g\	-ra-	8cc\	ve-
8ff\	-ra-	.	.	.	.	.	.	8dd\	-ra-
2gg\	-men-	2C/	-men-	2c/	-men-	2g\	-men-	2eeny\	-men-
!	!	!	!	!LO:N:acc=#	!	!	!	!	!
4gg\	-te	4G\	-te	4Bn/	-te	4g\	-te	4dd\	-te
!	!	!	!	!	!	!LO:SIC:v:t=custos a	!	!	!
4gg\	non	4C/	non	4c/	non	4g\	non	4ee\	non
!	!	!	!	!	!	!LO:LB:g=original	!	!	!
2cc\	sò	2F/	sò	2c/	sò	2a\	sò	2.ff\	sò
=27-	=27-	=27-	=27-	=27-	=27-	=27-	=27-	=27-	=27-
2cc\	co-	2A\	co-	1r	.	2a\	co-	.	.
.	.	.	.	.	.	.	.	4ee\	co-
4.b-/	-me	4.B-\	-me	.	.	4.fny\	-me	4.dd\	-me
!LO:SIC:v:t=custos a	!	!	!	!	!	!	!	!	!
8b-/	fug-	8G\	fug-	.	.	8g\	fug-	8cc\	fug-
!LO:LB:g=original	!	!	!	!	!	!	!	!	!
2a/	-gi-	2A\	-gi-	4r	.	2e/	-gi-	2cc#X\	-gi-
.	.	.	.	4A/	non	.	.	.	.
4a/	-re	2D/	-re	2d\	sò	2f\	-re	4dd\	-re
4dd\	non	.	.	.	.	.	.	4a/	non
=28-	=28-	=28-	=28-	=28-	=28-	=28-	=28-	=28-	=28-
4.ff\	sò	0r	.	2B-y/	co-	4r	.	4.dd\	sò
.	.	.	.	.	.	4d/	non	.	.
!	!	!	!	!	!	!	!	!LO:SIC:v:t=custos b	!
8ff\	co-	.	.	.	.	.	.	8dd\	co-
!	!	!	!	!	!	!	!	!LO:LB:g=original	!
4.ee-X\	-me	.	.	4.e-X\	-me	4.g\	sò	4.b-y/	-me
8ee-\	fug-	.	.	8c/	fug-	8a\	co-	8cc#yX\	fug-
1dd	-gi-	.	.	1d	-gi-	4f#X\	-me	1a	-gi-
.	.	.	.	.	.	2g\	fug-	.	.
.	.	.	.	.	.	4f#X\	-gi-	.	.
=29-	=29-	=29-	=29-	=29-	=29-	=29-	=29-	=29-	=29-
1dd	-re	1r	.	1G	-re	1g	-re	2.b-/	.
.	.	.	.	.	.	.	.	4ccny\	.
!	!	!LO:SIC:v:t=custos G	!	!	!	!	!	!	!
1r	.	1G	Di	2d\	Di	1b-	Di	1dd	-re
!	!	!	!	!LO:SIC:v:t=custos c	!	!	!	!	!
.	.	.	.	1d\	non	.	.	.	.
!	!	!LO:LB:g=original	!	!LO:LB:g=original	!	!	!	!	!
=30-	=30-	=30-	=30-	=30-	=30-	=30-	=30-	=30-	=30-
1dd	Di	1.G	non	.	.	1.b-	non	1r	.
.	.	.	.	2c/	mo-	.	.	.	.
1.gg	non	.	.	1B-	-rir	.	.	1dd	Di
.	.	2F/	mo-	.	.	2a\	mo-	.	.
=31-	=31-	=31-	=31-	=31-	=31-	=31-	=31-	=31-	=31-
.	.	1.E-X	-rir	0B-	in	1g	-ri-	1.gg	non
2ff\	mo-	.	.	.	.	.	.	.	.
1.ee-X	-rir	.	.	.	.	1g	-re	.	.
.	.	2D/	in	.	.	.	.	2ff\	mo-
=32-	=32-	=32-	=32-	=32-	=32-	=32-	=32-	=32-	=32-
!	!	!	!	!	!	!LO:SIC:v:t=custos g	!	!	!
.	.	1C	que-	0c	que-	1g	in	1.ee-X	-rir
2dd\	in	.	.	.	.	.	.	.	.
!	!	!	!	!	!	!LO:LB:g=original	!	!	!
1.cc	que-	1C	-ſto	.	.	1g	que-	.	.
.	.	.	.	.	.	.	.	2dd\	in
=33-	=33-	=33-	=33-	=33-	=33-	=33-	=33-	=33-	=33-
.	.	1.F	di	1A	-ſto	1.a	-ſto	1cc	que-
2b-/	-ſto	.	.	.	.	.	.	.	.
1.a	di	.	.	1.c	di-	.	.	1cc	-ſto
.	.	2Eny/	par-	.	.	2g\	di	.	.
=34-	=34-	=34-	=34-	=34-	=34-	=34-	=34-	=34-	=34-
.	.	0D	-ti-	.	.	2f#X\	par-	2.dd\	di
2g/	par-	.	.	2B-/	-par-	2.g\	-ti-	.	.
.	.	.	.	.	.	.	.	4dd\	par-
1a	-ti-	.	.	1A	-ti-	.	.	1dd	-ti-
.	.	.	.	.	.	8f#X\	.	.	.
.	.	.	.	.	.	8e\	.	.	.
.	.	.	.	.	.	2f#X\	.	.	.
=35-	=35-	=35-	=35-	=35-	=35-	=35-	=35-	=35-	=35-
!LO:N:acc=#	!	!	!	!	!	!	!	!	!
00bn/	-re.	00G	-re.	00G	-re.	00g	-re.	00dd	-re.
==	==	==	==	==	==	==	==	==	==
*-	*-	*-	*-	*-	*-	*-	*-	*-	*-
!!!system-decoration: [(s1,s2,s3,s4,s5)]
!!!ENC: Filip Voros
!!!END: 2022-06-10
!!!ENC: Natalia Wrzos
!!!END: 2022-07-21
